app/client/src/assets/icons/blueprintjs/20px/scatter-plot.svg

<svg xmlns="http://www.w3.org/2000/svg" xml:space="preserve" viewBox="0 0 20 20"><path fill-rule="evenodd" d="M9 9c1.1 0 2-.9 2-2s-.9-2-2-2-2 .9-2 2 .9 2 2 2zm5 2c1.1 0 2-.9 2-2s-.9-2-2-2-2 .9-2 2 .9 2 2 2zm4-5c1.1 0 2-.9 2-2s-.9-2-2-2-2 .9-2 2 .9 2 2 2zm1 10H2V3c0-.55-.45-1-1-1s-1 .45-1 1v14c0 .55.45 1 1 1h18c.55 0 1-.45 1-1s-.45-1-1-1zM5 15c1.1 0 2-.9 2-2s-.9-2-2-2-2 .9-2 2 .9 2 2 2z" clip-rule="evenodd"/></svg>

<?xml version="1.0" encoding="utf-8"?>
<!-- Generator: Adobe Illustrator 18.0.0, SVG Export Plug-In . SVG Version: 6.00 Build 0)  -->
<svg version="1.1" id="Layer_1" xmlns="http://www.w3.org/2000/svg" xmlns:xlink="http://www.w3.org/1999/xlink" x="0px" y="0px"
	 viewBox="0 0 20 20" enable-background="new 0 0 20 20" xml:space="preserve">
<g id="scatter_plot_1_">
	<g>
		<path fill-rule="evenodd" clip-rule="evenodd" d="M9,9c1.1,0,2-0.9,2-2c0-1.1-0.9-2-2-2S7,5.9,7,7C7,8.1,7.9,9,9,9z M14,11
			c1.1,0,2-0.9,2-2c0-1.1-0.9-2-2-2s-2,0.9-2,2C12,10.1,12.9,11,14,11z M18,6c1.1,0,2-0.9,2-2c0-1.1-0.9-2-2-2s-2,0.9-2,2
			C16,5.1,16.9,6,18,6z M19,16H2V3c0-0.55-0.45-1-1-1S0,2.45,0,3v14c0,0.55,0.45,1,1,1h18c0.55,0,1-0.45,1-1S19.55,16,19,16z M5,15
			c1.1,0,2-0.9,2-2c0-1.1-0.9-2-2-2s-2,0.9-2,2C3,14.1,3.9,15,5,15z"/>
	</g>
</g>
</svg>
